svgs/solid/ruler-triangle.svg

<svg xmlns="http://www.w3.org/2000/svg" viewBox="0 0 512 512"><!--! Font Awesome Pro 6.0.0-alpha3 by @fontawesome - https://fontawesome.com License - https://fontawesome.com/license (Commercial License) --><path d="M502.6 457.4l-52.96-52.96l-22.91 22.92c-6.223 6.221-16.4 6.221-22.63 0c-6.225-6.225-6.223-16.41 0-22.63l22.91-22.91l-57.37-57.37l-22.91 22.91c-6.225 6.221-16.4 6.223-22.63 0c-6.225-6.225-6.223-16.41 0-22.63l22.91-22.91l-57.37-57.37L266.7 267.3c-6.223 6.221-16.41 6.223-22.63 0c-6.225-6.225-6.225-16.41 0-22.63l22.9-22.91L209.7 164.4L186.7 187.3c-6.221 6.221-16.4 6.223-22.62 0c-6.227-6.225-6.225-16.41 0-22.63l22.9-22.9L129.6 84.43L106.7 107.3c-6.223 6.221-16.41 6.223-22.63 0c-6.225-6.223-6.223-16.41 0-22.63l22.9-22.9l-52.39-52.39C45.45 .2285 31.7-2.553 19.75 2.479C7.797 7.416 0 19.1 0 32.04V480C0 497.7 14.33 512 32 512h448c12.94 0 24.61-7.781 29.56-19.75C514.5 480.3 511.8 466.5 502.6 457.4zM128 384V256l127.1 127.1H128z"/></svg>

<svg xmlns="http://www.w3.org/2000/svg" viewBox="0 0 512 512"><!-- Font Awesome Pro 6.0.0-alpha2 by @fontawesome - https://fontawesome.com License - https://fontawesome.com/license (Commercial License) --><path d="M502.625 457.379L449.66 404.418L426.746 427.334C420.523 433.555 410.342 433.555 404.119 427.334C397.895 421.109 397.896 410.928 404.119 404.703L427.031 381.791L369.658 324.422L346.748 347.334C340.523 353.555 330.344 353.557 324.119 347.334C317.895 341.109 317.896 330.928 324.119 324.703L347.027 301.795L289.654 244.426L266.748 267.334C260.525 273.555 250.342 273.557 244.121 267.334C237.896 261.109 237.896 250.928 244.121 244.705L267.025 221.799L209.65 164.43L186.746 187.334C180.525 193.555 170.342 193.557 164.121 187.334C157.895 181.109 157.896 170.928 164.121 164.705L187.023 141.803L129.648 84.434L106.748 107.334C100.525 113.555 90.342 113.557 84.121 107.334C77.896 101.111 77.898 90.928 84.121 84.705L107.02 61.807L54.625 9.416C45.453 0.229 31.703 -2.553 19.75 2.479C7.797 7.416 0 19.104 0 32.039V480.002C0 497.689 14.328 512 32 512H480C492.938 512 504.609 504.219 509.562 492.252C514.516 480.283 511.781 466.535 502.625 457.379ZM128 384.01V256.021L256 384.01H128Z"/></svg>
